X:1
T:D Major                Amos Pilsbury, 1799
T:John Cennick, 1718-1755     76. 76.
T:South Carolina
T:Transcribed from  The United States Sacred Harmony, 1799.
%%score [ 1 2 3 4 ]
L:1/8
Q:1/4=80
M:2/4
K:D
V:1 treble nm="Voice" snm="Tr."
V:2 treble nm="Voice" snm="C."
V:3 treble-8 nm="Tenor" snm="T."
V:4 bass nm="Bass" snm="B."
V:1
 A2 dc | d3 e | f>e d c/B/ | A4 | A3 A | B>A Bd | d2 !fermata!c2 | A2 dc | c2 BA | d>c BA | A4 | %11
w: 1.~Come, my *|soul, be-|fore~ _ _ the *|Lamb,|Fall and|do~ _ _ him|reve- rence;|Bless him *|for his *|blood~ _ _ and|name,|
w: 2.~Why should *|sor- row|bow~ _ _ you *|down,|Tr- als|or~ _ _ temp-|ta- tion?|Is not *|Christ up- *|on~ _ _ the|throne,|
 d3 B | A2 G2 | G2 !fermata!F2 | DF GB | d>c BA | A2 [FA]2- | [FA]4 |] %18
w: Sing his|great de-|li- verance,|Sing~ _ _ his|great~ _ _ de-|li- verance.||
w: Still thy|strong sal-|va- tion?|Still~ _ _ thy|strong~ _ _ sal-|va- tion?||
V:2
 D2 DE | D3 E | F>G FE | F4 | F3 F | E>F ED | D2 !fermata!E2 | D2 DE | F2 EF | G3 E | F4 | FD GF | %12
w: 3.~Cast thy *|bur- dens|on~ _ _ the|Lord,|Leave them|with~ _ _ the|Sa- vior;|He whose *|hands for *|thee were|bored|Can~ _ _ and|
w: 4.~Turn thee *|to thy|rest,~ _ _ my|soul,|Turn thee|and~ _ _ dis-|co- ver|How he *|yet is *|mer- ci-|ful,|Turn~ _ _ thee|
 E2 D2 | E2 !fermata!E2 | DF G F/E/ | D3 C | D2 D2- | D4 |] %18
w: will de-|li- ver,|Can~ _ _ and *|will de-|li- ver.||
w: to thy|lo- ver,|Turn~ _ _ thee *|to thy|lo- ver.||
V:3
 A2 GF | B3 A | A>G FA | d4 | dAB/c/d | G>A GF | F2 !fermata!E2 | F2 ED | A2 GF | B>A Bc | d4 | %11
w: 5.~Blush that *|thou hast|him~ _ _ for-|got,|Who~ _ _ _ can|hap- * * py|make thee;|Gaze up- *|on him, *|who~ _ _ thee|bought,|
w: 6.~Leave thy *|earth- ly|cares~ _ _ be-|hind,|Mind~ _ _ _ a-|lone~ _ _ thy|Sa- vior;|Count thou *|all be- *|side~ _ _ but|wind,|
 df ed | cA dB | B2 !fermata!A2 | dA Bd | G>A GF | E2 D2- | D4 |] %18
w: Till _ _ to|him * he *|takes thee,|Till~ _ _ to|him~ _ _ he|takes thee.||
w: Tram- * * ple|on * it *|ev- er,|Tram- * * ple|on~ _ _ it|ev- er.||
V:4
 D,2 D,2 | G,3 E, | F,>E, D,A,, | D,4 | D,>F, G,F, | E,>D, C,D, | A,,2 !fermata!A,,2 | D,2 A,,2 | %8
 F,2 D,2 | G,>F, G,A, | D,4 | D,F, A,G, | F,D, E,2 | E,2 !fermata!A,,2 | D,A,, D,F, | G,>F, E,D, | %16
"^___________________________\nEdited by B. C. Johnston, 2018\n   1. Measure 5, \nTenor\n changed from \n   2. Grace notes eliminated from \nTenor\n, measures 7 and 14.\n   3. Measures 7 anad 14: in original, fermata on first note; should be on second note." A,,2 D,2- | %17
 D,4 |] %18

